X:13
T:Loure in G Major
C:Bach, J.S.
M:6/4
L:1/8
Q:3/4=56
K:G
|:D2|G4 AB c2 BA G2|A4 Bc d2 cB A2|B4 cd e2 dc B2|
A4 GA B2 AG F2|G4 AB c2 BA G2|d4 ef g2 fe d2|
e4 dc B2 AG F2|G8 D2:|

